icons/lines/message-edit.svg

<svg xmlns="http://www.w3.org/2000/svg" width="24" height="24" viewBox="0 0 24 24" fill="none" stroke="currentColor" stroke-width="2" stroke-linecap="round" stroke-linejoin="round" >
  <path d="M16 2H8C4 2 2 4 2 8V21C2 21.55 2.45 22 3 22H16C20 22 22 20 22 16V8C22 4 20 2 16 2Z"/>
  <path d="M12.9098 7.84L7.71979 13.03C7.51979 13.23 7.3298 13.62 7.2898 13.9L7.0098 15.88C6.9098 16.6 7.40979 17.1 8.12979 17L10.1098 16.72C10.3898 16.68 10.7798 16.49 10.9798 16.29L16.1698 11.1C17.0598 10.21 17.4898 9.17 16.1698 7.85C14.8498 6.52 13.8098 6.94 12.9098 7.84Z" stroke-miterlimit="10"/>
  <path d="M12.1699 8.58002C12.6099 10.15 13.8399 11.39 15.4199 11.83" stroke-miterlimit="10"/>
  </svg>

<svg xmlns="http://www.w3.org/2000/svg" width="24" height="24" viewBox="0 0 24 24" fill="none" stroke="currentColor" stroke-width="2" stroke-linecap="round" stroke-linejoin="round">
  <path d="M12.17 8.58a4.69 4.69 0 0 0 3.25 3.25" />
  <path d="M7.72 13.03a1.8 1.8 0 0 0-.43.87l-.28 1.98c-.1.72.4 1.22 1.12 1.12l1.98-.28a1.8 1.8 0 0 0 .87-.43l5.19-5.19c.89-.89 1.32-1.93 0-3.25-1.32-1.33-2.36-.91-3.26-.01z" />
  <path d="M8 2Q2 2 2 8v13a1 1 0 0 0 1 1h13q6 0 6-6V8q0-6-6-6z" />
</svg>
